X:35
M:C
L:1/8
K:E_
 B,2|1
g>e g<b e<e g>f|g<e a>g f>B d<f|g>e g<b e<e g2|e>g B<b g>e e<b|
g/a/b a>f g>e f<d|e/d/c/B/ A/G/F/E/ F>BD||

